build/img/icon/plus.svg

<svg xmlns="http://www.w3.org/2000/svg" preserveAspectRatio="xMidYMid" width="37" height="38" viewBox="0 0 37 38"><defs><style>.cls-2 { fill: #fefefe; opacity: 0.7; }</style></defs><path d="M0 0h37.063v37.03H0V0zm16.063 9v6.938c-2.292 0-4.646.093-6.938.093 0 1.46-.062 3.512-.062 4.97h6.968c0 2.29.033 4.678.033 6.97 1.458 0 3.51-.064 4.968-.064 0-2.29-.03-4.677-.03-6.968h7c0-1.458.03-3.48.03-4.938-2.29 0-4.738.03-7.03.03 0-2.29-.03-4.738-.03-7.03h-4.907z" id="path-1" class="cls-2" fill-rule="evenodd"/></svg>

<svg xmlns="http://www.w3.org/2000/svg" xmlns:xlink="http://www.w3.org/1999/xlink" preserveAspectRatio="xMidYMid" width="37" height="38" viewBox="0 0 37 38">
  <defs>
    <style>

      .cls-2 {
        fill: #fefefe;
        opacity: 0.7;
      }
    </style>
  </defs>
  <path d="M0.000,0.000 C12.499,0.000 24.564,0.000 37.063,0.000 C37.063,12.499 37.063,24.533 37.063,37.031 C24.564,37.031 12.499,37.031 0.000,37.031 C0.000,24.500 0.000,12.532 0.000,0.000 ZM16.063,9.000 C16.063,11.292 16.063,13.646 16.063,15.938 C13.771,15.938 11.417,16.031 9.125,16.031 C9.125,17.490 9.063,19.542 9.063,21.000 C11.354,21.000 13.740,21.000 16.031,21.000 C16.031,23.291 16.063,25.678 16.063,27.969 C17.521,27.969 19.573,27.906 21.031,27.906 C21.031,25.615 21.000,23.229 21.000,20.938 C23.292,20.938 25.709,20.938 28.000,20.938 C28.000,19.480 28.031,17.458 28.031,16.000 C25.740,16.000 23.292,16.031 21.000,16.031 C21.000,13.740 20.969,11.292 20.969,9.000 C19.511,9.000 17.521,9.000 16.063,9.000 Z" id="path-1" class="cls-2" fill-rule="evenodd"/>
</svg>
